ui/src/assets/icons/success.svg

<svg width="20" height="20" version="1.1" viewBox="0 0 20 20" xmlns="http://www.w3.org/2000/svg">
 <circle cx="10" cy="10" r="8.0508" fill="#fff" style="paint-order:stroke fill markers"/>
 <path d="m10 0c5.52 0 10 4.48 10 10s-4.48 10-10 10-10-4.48-10-10 4.48-10 10-10zm3.661 6.25-5.03 4.917-2.329-2.158-1.302 1.344 3.667 3.397 6.333-6.19z" fill="#00c582"/>
</svg>

<svg
   width="20"
   height="20"
   viewBox="0 0 20 20"
   version="1.1"
   id="svg4">
  <defs/>
  <path
     d="M 10,0 C 15.52,0 20,4.48 20,10 20,15.52 15.52,20 10,20 4.48,20 0,15.52 0,10 0,4.48 4.48,0 10,0 Z M 13.661,6.25 8.631,11.167 6.302,9.009 5,10.353 8.667,13.75 15,7.56 Z"
     id="path2"
     style="fill:#00c582;fill-rule:nonzero" />
</svg>
